!!!COM: Anon.
!!!OTL: Bom dia, papai, mama~e
!!!OTL: Romanceiro Folclorico do Brasil
!!!CNT: Brasil
!!!OCY: Brasil
!!!ODT: <1971///
!!!PSR: Irmaos Vitale
!!!PSP: Sao Paulo, Brasil
!!!PDT: 1949///
!!!PPE: Rossini Tavares de Lima
!!!PPG: pages 31-32
!! Romance: Antoniho
!! Place: Sao Paulo, Sao Paulo, Brasil
**kern
*clefG2
*k[b-e-a-]
*M3/4
*MM100
4g
=
4c
8c
8d
8e-
8f
=
2g
4g
=
4a-
8a-
8cc
8b-
8a-
=
2g
4g
=
4f
8d
8d
8g
8f
=
4e-
4c
8f
8e-
=
4d
8B-
8c
8e-
8d
=
2c
==
*-
